img/logo.svg

<svg width="111" height="24" viewBox="0 0 111 24" fill="none" xmlns="http://www.w3.org/2000/svg">
<path d="M13.8724 8.06138C18.8738 6.35294 19.2139 0 14.3225 0C13.4547 0.0915078 12.6248 0.410867 11.9132 0.927092C11.2017 1.44332 10.6326 2.13888 10.2614 2.94629L3.65951 14.6292C3.38833 15.1398 3.07013 15.6228 2.70924 16.0716C1.89094 14.9225 1.55243 13.4881 1.76815 12.0837C1.98387 10.6794 2.73616 9.42023 3.85957 8.58312L3.9896 8.52174L2.98932 7.24297C-2.20216 10.5985 -0.691728 20.2864 7.99074 20.2864C15.2028 20.2864 18.6038 11.2532 13.8724 8.06138ZM7.81069 18.3529C6.57637 18.3842 5.35556 18.0844 4.26968 17.4834C4.72898 16.9236 5.1406 16.3247 5.50003 15.6931L9.63121 8.37852L10.2914 8.45013C16.053 9.68798 13.7624 18.3529 7.81069 18.3529ZM10.4514 6.86445L12.452 3.38619C14.2425 0.225064 16.5332 2.08696 15.3028 4.40921C14.3525 6.30179 12.9922 6.86445 10.4514 6.86445Z" fill="white"/>
<path d="M110.02 13.3811L109.85 13.5754C108.66 15.1099 107.117 16.3189 105.358 17.0946C105.759 16.4399 106.069 15.7442 106.359 15.2123L109.069 10.4552C111.36 6.4757 107.649 5.14578 105.148 7.38619L105.648 6.51662H103.218L99.3767 13.3299L99.2066 13.5243C98.7415 14.073 98.1733 14.5205 97.5359 14.8404C96.8984 15.1602 96.2046 15.3458 95.4956 15.3862L97.8163 11.2941C99.3067 8.66496 97.9363 6.17903 95.6156 6.17903C93.7251 6.17903 92.2647 6.95652 90.8443 9.46292L89.6439 11.6113L88.6436 13.3708L88.5136 13.5243C86.7431 15.6726 85.0126 17.3913 83.9323 17.3913C83.3922 17.3913 83.0821 17.0026 83.6522 16.0205L87.1932 9.61637C88.2535 7.70332 87.1932 6.33248 85.8729 6.33248C85.2064 6.40085 84.5602 6.60541 83.9726 6.93403C83.3849 7.26265 82.8678 7.70863 82.4519 8.24552L86.373 1.26854H84.0123L77.0904 13.4118L76.9503 13.5754C76.0723 14.6144 75.0632 15.5295 73.9495 16.2967C74.7297 13.9028 74.5697 10.2404 76.0801 7.0179L74.2296 5.99488C73.2293 7.41688 70.9986 10.7008 68.778 13.3606L68.608 13.555C66.8375 15.6522 65.117 17.3197 64.0267 17.3197C63.4865 17.3197 63.1764 16.9309 63.7466 15.9488L66.2073 11.5499C66.5591 11.042 66.7185 10.4207 66.6559 9.80161C66.5934 9.18251 66.3131 8.60772 65.8672 8.18414L64.5268 6.4757C64.4426 6.37233 64.3791 6.25298 64.3401 6.12448C64.301 5.99599 64.2871 5.86088 64.2992 5.72688C64.3113 5.59289 64.3491 5.46265 64.4105 5.34363C64.4718 5.2246 64.5556 5.11913 64.6568 5.03325L63.3965 3.60102C62.0061 4.8798 61.876 6.30179 62.7563 7.46803L62.9664 7.75448C61.876 9.31969 60.4156 11.4476 58.8152 13.3811L58.6451 13.5754C56.8746 15.6726 54.644 17.3402 52.8835 17.3402C51.3731 17.3913 50.4728 16.3683 51.6031 14.3223L51.8432 13.8926C53.4236 14.5678 56.4045 14.2506 58.245 10.9974L58.5951 10.3734C59.9155 8.05115 58.5951 6.28133 56.5945 6.28133C55.6405 6.29144 54.7075 6.56974 53.8977 7.08578C53.0879 7.60182 52.4325 8.33571 52.0032 9.20716L49.6526 13.4015L49.5025 13.5754C49.0408 14.1282 48.4734 14.5786 47.8352 14.8988C47.197 15.219 46.5015 15.4023 45.7915 15.4373L48.1021 11.3453C48.6358 10.4807 48.9456 9.49141 49.0024 8.47059C49.0172 8.18808 48.977 7.90537 48.8842 7.63885C48.7914 7.37233 48.6478 7.1273 48.4617 6.91796C48.2756 6.70861 48.0508 6.53912 47.8002 6.41931C47.5496 6.29949 47.2782 6.23173 47.0018 6.21995H46.8018C46.2256 6.23257 45.6671 6.42536 45.2013 6.77238L48.3222 1.23785H45.8215L38.9995 13.422L38.8695 13.5754C37.049 15.6726 35.3285 17.3913 34.2382 17.3913C33.698 17.3913 33.388 17.0026 33.9581 16.0205L36.4088 11.6215C36.7792 11.1067 36.9485 10.4692 36.8838 9.83356C36.8191 9.1979 36.5249 8.60978 36.0587 8.18414L34.6783 6.4757C34.5941 6.37233 34.5306 6.25298 34.4916 6.12448C34.4525 5.99599 34.4386 5.86088 34.4507 5.72688C34.4628 5.59289 34.5006 5.46265 34.562 5.34363C34.6233 5.2246 34.7071 5.11913 34.8084 5.03325L33.548 3.60102C32.1576 4.8798 31.9976 6.30179 32.9978 7.46803L33.2079 7.75448C32.1176 9.31969 30.6572 11.4476 29.0567 13.3811L28.8867 13.5754C27.0662 15.6726 25.3457 17.3913 24.2554 17.3913C23.7152 17.3913 23.4051 17.0026 23.9753 16.0205L27.9764 8.96164H26.516C26.5213 8.27152 26.2591 7.60735 25.7866 7.11458C25.3142 6.6218 24.67 6.34058 23.9953 6.33248C23.1113 6.42119 22.2619 6.72946 21.521 7.23047C20.7801 7.73148 20.1701 8.41006 19.7441 9.20716L16.3031 15.3453C15.3028 17.2072 15.993 18.9156 17.9836 18.9156C19.2594 18.7565 20.4515 18.1827 21.3845 17.2788C21.4589 17.7828 21.7238 18.2369 22.1224 18.543C22.5209 18.8492 23.0211 18.983 23.5152 18.9156C25.5157 18.9156 27.8764 16.6957 29.917 14.2813C31.0773 12.8798 31.9175 11.6215 33.9181 8.94118L34.2382 9.35038C34.4051 9.54204 34.5086 9.78277 34.5337 10.0382C34.5589 10.2935 34.5045 10.5505 34.3782 10.7724L31.8075 15.3453C30.8072 17.2072 31.4974 18.9156 33.488 18.9156C34.9184 18.9156 36.4888 17.821 37.9993 16.3376C37.9885 17.0369 38.2485 17.7121 38.7226 18.2161C39.1967 18.7201 39.8463 19.012 40.53 19.0281H40.8301C41.6538 18.9878 42.4576 18.7558 43.1804 18.3498C43.9032 17.9439 44.526 17.3746 45.0013 16.6854C45.1812 16.6957 45.3615 16.6957 45.5414 16.6854C46.6926 16.6152 47.8107 16.2644 48.8023 15.6624C48.6723 17.4731 49.9627 18.8542 52.1333 18.8542C54.9241 18.8542 57.6849 16.6343 59.7154 14.2199C60.8958 12.8184 61.816 11.5601 63.7766 8.83887L64.1067 9.24808C64.2736 9.43974 64.3771 9.68046 64.4022 9.93585C64.4274 10.1912 64.3729 10.4482 64.2467 10.6701L61.646 15.2839C60.6457 17.1458 61.3359 18.8542 63.3265 18.8542C65.317 18.8542 67.6877 16.6343 69.7283 14.2199C71.1187 12.5831 72.349 10.8133 73.2193 9.63683C72.219 12.2455 72.7691 16.9309 70.4385 16.9309C70.1796 16.9059 69.933 16.806 69.7275 16.643C69.5221 16.4799 69.3662 16.2605 69.2782 16.0102L67.7477 16.8286C67.9016 17.43 68.2507 17.96 68.7378 18.3317C69.2249 18.7035 69.821 18.8949 70.4285 18.8747C70.6585 18.8747 70.8886 18.8747 71.1087 18.8747H71.1787C72.5747 18.6333 73.8907 18.0429 75.0098 17.156L74.1695 18.6598H76.6502L80.3913 11.9795C84.1224 7.16113 85.8028 7.75448 84.7325 9.61637L81.5416 15.3453C80.5413 17.1969 81.2415 18.9156 83.2221 18.9156C84.6525 18.9156 86.223 17.821 87.7434 16.3274C87.7434 19.5294 92.0846 20.1535 94.7454 16.7161H95.2855C96.2296 16.6966 97.1594 16.4771 98.0163 16.0716L93.545 24H96.0157L103.358 10.9361C106.019 7.16112 107.769 8.52174 107.129 9.65729L103.418 16.2251C103.333 16.39 103.206 16.5281 103.05 16.6245C102.894 16.7208 102.715 16.7718 102.533 16.7718C102.35 16.7718 102.172 16.7208 102.016 16.6245C101.86 16.5281 101.732 16.39 101.647 16.2251L100.257 16.9003C100.41 17.5043 100.76 18.0367 101.249 18.4089C101.739 18.7812 102.338 18.9708 102.948 18.9463H103.088C106.649 18.8747 108.989 16.6957 111 14.312C110.916 14.0911 110.784 13.8925 110.615 13.7312C110.445 13.5699 110.241 13.4502 110.02 13.3811ZM54.1339 9.85166C55.5543 7.36573 58.055 7.80563 56.5845 10.3836L56.2344 11.0077C55.0541 13.0537 53.4737 13.0537 52.5534 12.6752L54.1339 9.85166ZM22.6649 13.8107C21.1745 16.2046 19.6641 17.3402 18.6638 17.3402C18.1236 17.3402 17.8135 16.9514 18.3837 15.9693L21.8047 9.8312C23.125 7.48849 25.7458 8.09207 24.5454 10.3632L22.6649 13.8107ZM41.1502 17.2379C41.0292 17.2491 40.9073 17.2357 40.7914 17.1985C40.6756 17.1613 40.5681 17.1011 40.4751 17.0212C40.3821 16.9413 40.3055 16.8434 40.2497 16.7331C40.1939 16.6228 40.1599 16.5023 40.1499 16.3785C40.1449 16.3446 40.1449 16.3101 40.1499 16.2762C40.1909 15.8145 40.3383 15.3693 40.58 14.977L41.4502 13.4322C41.5078 13.9603 41.6761 14.4695 41.9437 14.9251C42.2113 15.3806 42.5718 15.7716 43.0007 16.0716C42.8115 16.4081 42.5432 16.6911 42.22 16.8947C41.8969 17.0984 41.5291 17.2163 41.1502 17.2379ZM43.7209 14.8031C43.39 14.5327 43.1268 14.1858 42.9529 13.7909C42.779 13.396 42.6993 12.9645 42.7206 12.532C42.7206 10.7417 44.4211 7.82609 45.8115 7.82609C45.9368 7.83128 46.0598 7.86204 46.1733 7.91658C46.2868 7.97111 46.3884 8.04831 46.4723 8.14363C46.5562 8.23896 46.6206 8.35048 46.6617 8.47163C46.7028 8.59279 46.7198 8.72113 46.7117 8.8491C46.7166 8.87616 46.7166 8.90389 46.7117 8.93095C46.6875 9.46268 46.5252 9.97821 46.2416 10.4246L43.7209 14.8031ZM94.1552 13.5448H94.0152C93.6313 13.5501 93.265 13.7099 92.9954 13.9894C92.7258 14.2689 92.5747 14.6458 92.5748 15.0384C92.5837 15.3375 92.6663 15.6296 92.8148 15.8875C91.6545 17.9335 88.8137 17.5243 90.3141 14.9258L92.1847 11.6215L93.365 9.57545C95.0855 6.578 97.4461 7.76471 95.9657 10.3734L94.1552 13.5448Z" fill="white"/>
</svg>

<svg width="111" height="24" fill="none" xmlns="http://www.w3.org/2000/svg"><path d="M13.872 8.061C18.874 6.353 19.214 0 14.322 0a4.994 4.994 0 00-2.409.927 5.15 5.15 0 00-1.652 2.02L3.66 14.628c-.272.51-.59.994-.95 1.443a5.454 5.454 0 01-.942-3.988 5.38 5.38 0 012.092-3.5l.13-.062-1-1.279c-5.192 3.355-3.682 13.043 5 13.043 7.213 0 10.614-9.033 5.882-12.225zM7.811 18.353a6.945 6.945 0 01-3.541-.87c.459-.56.87-1.158 1.23-1.79L9.631 8.38l.66.071c5.762 1.238 3.471 9.903-2.48 9.903zm2.64-11.489l2.001-3.478c1.79-3.16 4.081-1.299 2.85 1.023-.95 1.893-2.31 2.455-4.85 2.455z" fill="#fff"/><path d="M110.02 13.381l-.17.194a11.625 11.625 0 01-4.492 3.52c.401-.655.711-1.35 1.001-1.883l2.71-4.757c2.291-3.98-1.42-5.31-3.921-3.069l.5-.87h-2.43l-3.841 6.814-.17.194a5.32 5.32 0 01-1.671 1.316 5.21 5.21 0 01-2.04.546l2.32-4.092c1.49-2.629.12-5.115-2.2-5.115-1.89 0-3.351.778-4.772 3.284l-1.2 2.148-1 1.76-.13.153c-1.77 2.149-3.501 3.867-4.582 3.867-.54 0-.85-.388-.28-1.37l3.541-6.405c1.06-1.913 0-3.284-1.32-3.284a4.921 4.921 0 00-1.9.602 5.03 5.03 0 00-1.521 1.312l3.921-6.977h-2.36L77.09 13.412l-.14.163a15.276 15.276 0 01-3 2.722c.78-2.394.62-6.057 2.13-9.28l-1.85-1.022c-1 1.422-3.231 4.706-5.452 7.366l-.17.194c-1.77 2.097-3.491 3.765-4.581 3.765-.54 0-.85-.39-.28-1.371l2.46-4.4a2.612 2.612 0 00-.34-3.365l-1.34-1.708a1.03 1.03 0 01-.228-.75 1.04 1.04 0 01.358-.693l-1.26-1.432c-1.39 1.279-1.521 2.7-.64 3.867l.21.286c-1.091 1.566-2.551 3.694-4.152 5.627l-.17.194c-1.77 2.098-4.001 3.765-5.762 3.765-1.51.051-2.41-.972-1.28-3.018l.24-.43c1.58.676 4.561.359 6.402-2.895l.35-.624c1.32-2.322 0-4.092-2-4.092a5.117 5.117 0 00-2.697.805 5.278 5.278 0 00-1.895 2.121l-2.35 4.194-.15.174a5.229 5.229 0 01-1.668 1.324 5.118 5.118 0 01-2.044.538l2.311-4.092a6.122 6.122 0 00.9-2.874 2.183 2.183 0 00-.54-1.553 2.094 2.094 0 00-.662-.499 2.053 2.053 0 00-.798-.199h-.2a2.78 2.78 0 00-1.6.552l3.12-5.534h-2.5l-6.823 12.184-.13.153c-1.82 2.098-3.54 3.816-4.63 3.816-.541 0-.851-.388-.28-1.37l2.45-4.4a2.611 2.611 0 00-.35-3.437l-1.38-1.708a1.03 1.03 0 01-.228-.75 1.04 1.04 0 01.357-.693l-1.26-1.432c-1.39 1.279-1.55 2.7-.55 3.867l.21.286c-1.09 1.566-2.55 3.694-4.151 5.627l-.17.194c-1.82 2.098-3.541 3.816-4.632 3.816-.54 0-.85-.388-.28-1.37l4.001-7.06h-1.46a2.64 2.64 0 00-.73-1.846 2.523 2.523 0 00-1.79-.783 5.374 5.374 0 00-2.475.898 5.53 5.53 0 00-1.777 1.977l-3.44 6.138c-1.001 1.862-.311 3.57 1.68 3.57a5.946 5.946 0 003.4-1.636c.075.504.34.958.738 1.264.399.306.9.44 1.393.373 2 0 4.361-2.22 6.402-4.635 1.16-1.401 2-2.66 4.001-5.34l.32.41a1.24 1.24 0 01.14 1.422l-2.57 4.572c-1 1.862-.31 3.57 1.68 3.57 1.43 0 3-1.094 4.511-2.577-.01.699.25 1.374.724 1.878a2.564 2.564 0 001.807.812h.3a5.33 5.33 0 002.35-.678 5.464 5.464 0 001.821-1.665c.18.01.36.01.54 0a7.117 7.117 0 003.261-1.023c-.13 1.811 1.16 3.192 3.331 3.192 2.791 0 5.552-2.22 7.582-4.634 1.18-1.402 2.101-2.66 4.062-5.381l.33.41a1.24 1.24 0 01.14 1.422l-2.601 4.613c-1 1.862-.31 3.57 1.68 3.57 1.991 0 4.362-2.22 6.402-4.634 1.39-1.637 2.621-3.407 3.491-4.583-1 2.608-.45 7.294-2.78 7.294a1.353 1.353 0 01-.711-.288 1.4 1.4 0 01-.45-.633l-1.53.819c.154.601.503 1.131.99 1.503a2.64 2.64 0 001.69.543h.75a8.5 8.5 0 003.832-1.719l-.84 1.504h2.48l3.741-6.68c3.731-4.819 5.412-4.226 4.341-2.364l-3.19 5.73c-1 1.85-.3 3.57 1.68 3.57 1.43 0 3.001-1.095 4.521-2.589 0 3.202 4.342 3.826 7.002.39h.54a6.706 6.706 0 002.731-.645L93.545 24h2.47l7.343-13.064c2.661-3.775 4.411-2.414 3.771-1.279l-3.711 6.568a1.015 1.015 0 01-.368.4.985.985 0 01-1.034 0 1.018 1.018 0 01-.369-.4l-1.39.675a2.74 2.74 0 00.992 1.509c.49.372 1.089.562 1.699.537h.14c3.561-.071 5.901-2.25 7.912-4.634a1.579 1.579 0 00-.385-.58 1.528 1.528 0 00-.595-.35zm-55.886-3.53c1.42-2.485 3.921-2.045 2.45.533l-.35.624c-1.18 2.046-2.76 2.046-3.68 1.667l1.58-2.823zm-31.47 3.96c-1.49 2.394-3 3.53-4 3.53-.54 0-.85-.39-.28-1.372l3.42-6.138c1.321-2.343 3.942-1.739 2.741.532l-1.88 3.448zm18.486 3.427a.902.902 0 01-.675-.217.938.938 0 01-.325-.643.35.35 0 010-.102 2.98 2.98 0 01.43-1.299l.87-1.545c.058.528.226 1.037.494 1.493A3.66 3.66 0 0043 16.072c-.19.336-.458.62-.781.823-.323.203-.69.321-1.07.343zm2.57-2.435a2.724 2.724 0 01-.767-1.012 2.785 2.785 0 01-.232-1.259c0-1.79 1.7-4.706 3.09-4.706a.923.923 0 01.661.318.966.966 0 01.24.705.23.23 0 010 .082 3.044 3.044 0 01-.47 1.494l-2.521 4.378zm50.435-1.258h-.14c-.384.005-.75.165-1.02.444-.27.28-.42.657-.42 1.05.009.299.091.59.24.848-1.16 2.046-4.001 1.637-2.5-.961l1.87-3.305 1.18-2.046c1.72-2.997 4.081-1.81 2.6.798l-1.81 3.172z" fill="#fff"/></svg>
